remix/Design/brush-3-fill.svg

<svg viewBox="0 0 24 24" fill="currentColor" xmlns="http://www.w3.org/2000/svg"><path d="M20 10.9967V7.9967H14V3.9967H10V7.9967H4V10.9967H20ZM21 12.9967V20.9967C21 21.549 20.5523 21.9967 20 21.9967H10V15.9967H8V21.9967H4C3.44772 21.9967 3 21.549 3 20.9967V12.9967H2V6.9967C2 6.44442 2.44772 5.9967 3 5.9967H8V2.9967C8 2.44442 8.44772 1.9967 9 1.9967H15C15.5523 1.9967 16 2.44442 16 2.9967V5.9967H21C21.5523 5.9967 22 6.44442 22 6.9967V12.9967H21Z"/></svg>

<svg viewBox="0 0 24 24" xmlns="http://www.w3.org/2000/svg"><path fill="none" d="M0 0h24v24H0Z"/><path d="M20 11V8h-6V4h-4v4H4v3h16Zm1 2v8 0c0 .55-.45 1-1 1H10v-6H8v6H4v0c-.56 0-1-.45-1-1v-8H2V7v0c0-.56.44-1 1-1h5V3v0c0-.56.44-1 1-1h6v0c.55 0 1 .44 1 1v3h5v0c.55 0 1 .44 1 1v6h-1Z"/></svg>
